logos/aws-appsync.svg

<?xml version="1.0" encoding="UTF-8"?>
<svg width="256px" height="256px" viewBox="0 0 256 256" version="1.1" xmlns="http://www.w3.org/2000/svg" xmlns:xlink="http://www.w3.org/1999/xlink" preserveAspectRatio="xMidYMid">
    <title>AWS AppSync</title>
    <defs>
        <linearGradient x1="0%" y1="100%" x2="100%" y2="0%" id="linearGradient-1">
            <stop stop-color="#B0084D" offset="0%"></stop>
            <stop stop-color="#FF4F8B" offset="100%"></stop>
        </linearGradient>
    </defs>
    <g>
        <rect fill="url(#linearGradient-1)" x="0" y="0" width="256" height="256"></rect>
        <path d="M212.864958,89.5386778 L195.243697,85.0859194 C212.728581,115.572407 209.953454,155.519002 187.603377,181.12637 C172.332252,198.626447 149.67136,208 126.886778,208 C113.629601,208 100.331195,204.826328 88.4187651,198.235348 L91.466647,192.612498 C121.317495,209.131622 160.603773,202.370739 182.846017,176.885189 C203.51516,153.207671 205.963615,116.143027 189.566581,87.9422243 L184.993172,106.439284 L178.84032,104.884505 L185.183467,79.2386688 C185.608458,77.5236035 187.32745,76.4657126 189.027413,76.9081034 L214.4,83.3195622 L212.864958,89.5386778 Z M66.4270758,165.078488 L71.0068278,146.558988 L77.15968,148.113767 L70.8165334,173.759603 C70.4581456,175.21821 69.1641437,176.189546 67.7432787,176.189546 C67.489553,176.189546 67.2294838,176.160695 66.9725866,176.093374 L41.6,169.681915 L43.1350415,163.4628 L60.7277587,167.905941 C43.3792526,137.935576 46.2114676,100.810023 68.6693782,75.0776317 C93.1729536,47.0050586 134.774481,39.8114016 167.584406,57.9718592 L164.536524,63.5947088 C134.301916,46.8640065 95.9829674,53.4742207 73.4267382,79.3188118 C52.7068497,103.060445 50.1917921,137.416248 66.4270758,165.078488 L66.4270758,165.078488 Z M100.467572,139.903894 C104.520843,139.903894 107.819279,143.237852 107.819279,147.33798 C107.819279,151.434903 104.520843,154.768861 100.467572,154.768861 C96.4111299,154.768861 93.1126938,151.434903 93.1126938,147.33798 C93.1126938,143.237852 96.4111299,139.903894 100.467572,139.903894 L100.467572,139.903894 Z M124.365377,111.517159 C125.529344,111.844143 126.734542,112.074956 128,112.074956 C129.18934,112.074956 130.324763,111.872995 131.425299,111.581274 L143.258439,137.130938 C141.250833,138.971027 139.791909,141.381735 139.141737,144.132251 L113.753293,144.132251 C113.115806,141.429821 111.698113,139.047964 109.744424,137.217492 L124.365377,111.517159 Z M128,90.7985293 C132.056442,90.7985293 135.354878,94.132488 135.354878,98.2294102 C135.354878,102.329538 132.056442,105.663497 128,105.663497 C123.946729,105.663497 120.648293,102.329538 120.648293,98.2294102 C120.648293,94.132488 123.946729,90.7985293 128,90.7985293 L128,90.7985293 Z M159.782336,147.33798 C159.782336,151.434903 156.4839,154.768861 152.427458,154.768861 C148.374187,154.768861 145.075751,151.434903 145.075751,147.33798 C145.075751,143.237852 148.374187,139.903894 152.427458,139.903894 C156.4839,139.903894 159.782336,143.237852 159.782336,147.33798 L159.782336,147.33798 Z M100.467572,161.180321 C106.921724,161.180321 112.31657,156.628185 113.753293,150.54371 L139.141737,150.54371 C140.581631,156.628185 145.973306,161.180321 152.427458,161.180321 C159.978974,161.180321 166.125483,154.970822 166.125483,147.33798 C166.125483,139.701933 159.978974,133.492435 152.427458,133.492435 C151.174686,133.492435 149.982175,133.720042 148.827722,134.040615 L137.026298,108.561476 C139.864856,106.022539 141.698025,102.355184 141.698025,98.2294102 C141.698025,90.5965683 135.551516,84.3870704 128,84.3870704 C120.448484,84.3870704 114.305147,90.5965683 114.305147,98.2294102 C114.305147,102.278247 116.062198,105.887898 118.80878,108.420424 L104.206857,134.085495 C103.011174,133.739276 101.77426,133.492435 100.467572,133.492435 C92.916056,133.492435 86.7695469,139.701933 86.7695469,147.33798 C86.7695469,154.970822 92.916056,161.180321 100.467572,161.180321 L100.467572,161.180321 Z" fill="#FFFFFF"></path>
    </g>
</svg>

<svg width="256" height="256" xmlns="http://www.w3.org/2000/svg" preserveAspectRatio="xMidYMid">
	<defs>
		<linearGradient x1="0%" y1="100%" x2="100%" y2="0%" id="a">
			<stop stop-color="#B0084D" offset="0%"/>
			<stop stop-color="#FF4F8B" offset="100%"/>
		</linearGradient>
	</defs>
	<path fill="url(#a)" d="M0 0h256v256H0z"/>
	<path d="m212.865 89.539-17.621-4.453c17.485 30.486 14.71 70.433-7.64 96.04C172.331 198.626 149.67 208 126.886 208c-13.257 0-26.556-3.174-38.468-9.765l3.048-5.623c29.85 16.52 69.137 9.759 91.379-15.727 20.67-23.677 23.118-60.742 6.72-88.943l-4.573 18.497-6.153-1.554 6.343-25.646c.425-1.715 2.144-2.773 3.844-2.33l25.373 6.41-1.535 6.22Zm-146.438 75.54 4.58-18.52 6.153 1.555-6.343 25.646a3.175 3.175 0 0 1-3.074 2.43 3.04 3.04 0 0 1-.77-.097L41.6 169.682l1.535-6.22 17.593 4.444c-17.349-29.97-14.517-67.096 7.941-92.828 24.504-28.073 66.105-35.267 98.915-17.106l-3.047 5.623c-30.235-16.731-68.554-10.12-91.11 15.724-20.72 23.741-23.235 58.097-7 85.76Zm34.04-25.175c4.054 0 7.352 3.334 7.352 7.434 0 4.097-3.298 7.43-7.351 7.43-4.057 0-7.355-3.333-7.355-7.43 0-4.1 3.298-7.434 7.355-7.434Zm23.898-28.387c1.164.327 2.37.558 3.635.558 1.19 0 2.325-.202 3.425-.494l11.833 25.55a13.782 13.782 0 0 0-4.116 7.001h-25.389a13.806 13.806 0 0 0-4.009-6.915l14.621-25.7ZM128 90.8c4.056 0 7.355 3.333 7.355 7.43 0 4.1-3.299 7.434-7.355 7.434-4.053 0-7.352-3.333-7.352-7.434 0-4.097 3.299-7.43 7.352-7.43Zm31.782 56.539c0 4.097-3.298 7.43-7.355 7.43-4.053 0-7.351-3.333-7.351-7.43 0-4.1 3.298-7.434 7.351-7.434 4.057 0 7.355 3.334 7.355 7.434Zm-59.314 13.842c6.454 0 11.849-4.552 13.285-10.636h25.389c1.44 6.084 6.831 10.636 13.285 10.636 7.552 0 13.698-6.21 13.698-13.842 0-7.636-6.146-13.846-13.698-13.846-1.252 0-2.445.228-3.6.549l-11.8-25.48c2.838-2.538 4.671-6.206 4.671-10.332 0-7.632-6.146-13.842-13.698-13.842-7.552 0-13.695 6.21-13.695 13.842 0 4.05 1.757 7.659 4.504 10.191l-14.602 25.665c-1.196-.346-2.433-.593-3.74-.593-7.55 0-13.697 6.21-13.697 13.846 0 7.633 6.146 13.842 13.698 13.842Z" fill="#FFF"/>
</svg>
